X: 1
T: Prince Charles of Edinburgh
C: John Robertson
O: RSCDS 39-9
B: RSCDS 39-9(I)
R: reel
Z: 1997 by John Chambers <jc:trillian.mit.edu>
M: C|
L: 1/8
K: D
   A2 \
| "D"D2dc dBAF | "E7"E2ed "A"cABc | "D"d2DC DFAd | "A"ce2f "D"d2Ac |
| "D"d2de dAFA | "Em"GABc "A"defg | "D"aAde fABd | "A"ce2c "D"d2 :|
|: fa \
| "D"d2af dAFD | CDFA d2fd | "G"efga "E7"gfed | "A"cdec AGFE |
| "D"D2dc dAFA | "Em"GABc "A"defg | "D"afdf "G"edcB | "A"Aefe "D"d2 :|
